icons/midnadark/apps/32/system-reboot.svg

<svg xmlns="http://www.w3.org/2000/svg" viewBox="0 0 48 48"><defs><linearGradient gradientUnits="userSpaceOnUse" y2="517.8" x2="0" y1="545.8"><stop stop-color="#3889e9"/><stop offset="1" stop-color="#5ea5fb"/></linearGradient></defs><circle cx="400.57" cy="531.8" r="14" fill="#5ea5fb" fill-opacity="0" transform="matrix(1.71282 0 0 1.70962-662.09-885.11)"/><path d="m506.37 293.1h-43.836c-11.09 0-20.04 8.874-20.426 19.813-9.104 84.61-80.71 150.48-167.84 150.48-93.25 0-168.76-75.43-168.76-168.53 0-92.26 76.04-167.23 168.07-168.53v27.387c0 12.47 8.874 18.05 19.737 12.47l140.68-71.986c10.863-5.585 10.863-14.612 0-20.2l-140.68-71.835c-10.863-5.584-19.737 0-19.737 12.393v27.616c-138.69 1.301-252.45 114.06-252.45 252.83 0 139.61 113.3 252.83 253.14 252.83 133.72 0 243.27-103.5 252.45-234.78.076-11.02-9.18-19.967-20.348-19.967m206.44088-17.84639a433.48605 433.48605 0 0 1 -433.48611 433.48611 433.48605 433.48605 0 0 1 -433.48612 -433.48611 433.48605 433.48605 0 0 1 433.48612 -433.48612 433.48605 433.48605 0 0 1 433.48611 433.48612" fill="#fff" transform="matrix(.05526 0 0 .05515 8.525 8.789)"/></svg>

<?xml version="1.0" encoding="UTF-8" standalone="no"?>
<!-- Created with Inkscape (http://www.inkscape.org/) -->

<svg
   xmlns:sketch="http://www.bohemiancoding.com/sketch/ns"
   xmlns:osb="http://www.openswatchbook.org/uri/2009/osb"
   xmlns:dc="http://purl.org/dc/elements/1.1/"
   xmlns:cc="http://creativecommons.org/ns#"
   xmlns:rdf="http://www.w3.org/1999/02/22-rdf-syntax-ns#"
   xmlns:svg="http://www.w3.org/2000/svg"
   xmlns="http://www.w3.org/2000/svg"
   xmlns:xlink="http://www.w3.org/1999/xlink"
   xmlns:sodipodi="http://sodipodi.sourceforge.net/DTD/sodipodi-0.dtd"
   xmlns:inkscape="http://www.inkscape.org/namespaces/inkscape"
   width="48"
   height="48"
   id="svg5453"
   version="1.1"
   inkscape:version="0.91 r13725"
   sodipodi:docname="system-reboot.svg">
  <defs
     id="defs5455">
    <linearGradient
       id="linearGradient4232">
      <stop
         style="stop-color:#3889e9;stop-opacity:1"
         offset="0"
         id="stop4234-0" />
      <stop
         style="stop-color:#5ea5fb;stop-opacity:1"
         offset="1"
         id="stop4236" />
    </linearGradient>
    <linearGradient
       gradientUnits="userSpaceOnUse"
       y2="517.79797"
       x2="399.57144"
       y1="545.79797"
       x1="399.57144"
       id="linearGradient3426"
       xlink:href="#linearGradient4232"
       inkscape:collect="always" />
    <linearGradient
       id="linearGradient4207"
       osb:paint="gradient">
      <stop
         style="stop-color:#3498db;stop-opacity:1;"
         offset="0"
         id="stop3371" />
      <stop
         style="stop-color:#3498db;stop-opacity:0;"
         offset="1"
         id="stop3373" />
    </linearGradient>
    <linearGradient
       id="linearGradient4304-0">
      <stop
         id="stop4306-4"
         style="stop-color:#dbdada;stop-opacity:1"
         offset="0" />
      <stop
         id="stop4308-9"
         style="stop-color:#ffffff;stop-opacity:1"
         offset="1" />
    </linearGradient>
    <linearGradient
       id="linearGradient4227-2">
      <stop
         id="stop4229-9"
         style="stop-color:#566069;stop-opacity:1"
         offset="0" />
      <stop
         id="stop4231-4"
         style="stop-color:#6c7884;stop-opacity:1"
         offset="1" />
    </linearGradient>
    <linearGradient
       gradientUnits="userSpaceOnUse"
       y2="517.79797"
       x2="399.57144"
       y1="545.79797"
       x1="399.57144"
       id="linearGradient4294"
       xlink:href="#linearGradient4232"
       inkscape:collect="always" />
    <linearGradient
       inkscape:collect="always"
       xlink:href="#linearGradient4232"
       id="linearGradient4363"
       x1="399.57144"
       y1="545.79797"
       x2="399.57144"
       y2="517.79797"
       gradientUnits="userSpaceOnUse" />
    <linearGradient
       gradientUnits="userSpaceOnUse"
       y2="517.79797"
       x2="399.57144"
       y1="545.79797"
       x1="399.57144"
       id="linearGradient4267"
       xlink:href="#linearGradient4232"
       inkscape:collect="always" />
    <linearGradient
       gradientUnits="userSpaceOnUse"
       y2="517.79797"
       x2="399.57144"
       y1="545.79797"
       x1="399.57144"
       id="linearGradient4276"
       xlink:href="#linearGradient4232"
       inkscape:collect="always" />
    <linearGradient
       inkscape:collect="always"
       xlink:href="#linearGradient4232"
       id="linearGradient4295"
       x1="399.57144"
       y1="545.79797"
       x2="399.57144"
       y2="517.79797"
       gradientUnits="userSpaceOnUse" />
    <linearGradient
       id="linearGradient4268">
      <stop
         id="stop4270"
         style="stop-color:#e4e2e2;stop-opacity:1"
         offset="0" />
      <stop
         id="stop4272"
         style="stop-color:#fcf9f9;stop-opacity:1"
         offset="1" />
    </linearGradient>
    <linearGradient
       gradientUnits="userSpaceOnUse"
       y2="517.79797"
       x2="399.57144"
       y1="545.79797"
       x1="399.57144"
       id="linearGradient4274"
       xlink:href="#linearGradient4232"
       inkscape:collect="always" />
  </defs>
  <sodipodi:namedview
     id="base"
     pagecolor="#777777"
     bordercolor="#666666"
     borderopacity="1.0"
     inkscape:pageopacity="0"
     inkscape:pageshadow="2"
     inkscape:zoom="2.8284271"
     inkscape:cx="-115.29678"
     inkscape:cy="29.947217"
     inkscape:document-units="px"
     inkscape:current-layer="layer1"
     showgrid="false"
     fit-margin-top="0"
     fit-margin-left="0"
     fit-margin-right="0"
     fit-margin-bottom="0"
     inkscape:window-width="1366"
     inkscape:window-height="687"
     inkscape:window-x="0"
     inkscape:window-y="0"
     inkscape:window-maximized="1"
     inkscape:showpageshadow="false"
     borderlayer="true"
     showguides="false"
     inkscape:guide-bbox="true">
    <inkscape:grid
       type="xygrid"
       id="grid4063" />
    <sodipodi:guide
       position="1.1650391e-05,32.000026"
       orientation="32,0"
       id="guide4157" />
    <sodipodi:guide
       position="1.1650391e-05,2.6367188e-05"
       orientation="0,32"
       id="guide4159" />
    <sodipodi:guide
       position="32.000012,2.6367188e-05"
       orientation="-32,0"
       id="guide4161" />
    <sodipodi:guide
       position="2.0000117,30.000026"
       orientation="28,0"
       id="guide4167" />
    <sodipodi:guide
       position="30.000012,2.0000264"
       orientation="-28,0"
       id="guide4171" />
    <sodipodi:guide
       position="30.000012,30.000026"
       orientation="0,-28"
       id="guide4173" />
    <sodipodi:guide
       position="2.0000117,30.000026"
       orientation="28,0"
       id="guide4181" />
    <sodipodi:guide
       position="2.0000117,2.0000264"
       orientation="0,14"
       id="guide4183" />
    <sodipodi:guide
       position="16.000012,2.0000264"
       orientation="-28,0"
       id="guide4185" />
    <sodipodi:guide
       position="16.000012,30.000026"
       orientation="0,-14"
       id="guide4187" />
    <sodipodi:guide
       position="9.0000117,23.000026"
       orientation="14,0"
       id="guide4193" />
    <sodipodi:guide
       position="9.0000117,9.0000264"
       orientation="0,14.000031"
       id="guide4195" />
    <sodipodi:guide
       position="23.000042,9.0000264"
       orientation="-14,0"
       id="guide4197" />
    <sodipodi:guide
       position="23.000042,23.000026"
       orientation="0,-14.000031"
       id="guide4199" />
    <sodipodi:guide
       position="48,-7"
       orientation="0,1"
       id="guide4164" />
  </sodipodi:namedview>
  <metadata
     id="metadata5458">
    <rdf:RDF>
      <cc:Work
         rdf:about="">
        <dc:format>image/svg+xml</dc:format>
        <dc:type
           rdf:resource="http://purl.org/dc/dcmitype/StillImage" />
        <dc:title />
      </cc:Work>
    </rdf:RDF>
  </metadata>
  <g
     inkscape:label="Capa 1"
     inkscape:groupmode="layer"
     id="layer1"
     transform="translate(-384.57143,-499.798)">
    <g
       id="layer1-50"
       inkscape:label="Capa 1"
       transform="matrix(1.712819,0,0,1.7096218,-277.55546,-385.44072)">
      <g
         style="stroke:none"
         transform="translate(-0.11123528,0.03124873)"
         inkscape:label="Capa 1"
         id="layer1-39">
        <g
           id="layer1-3"
           inkscape:label="Capa 1"
           transform="translate(0.13524268,0.04517549)"
           style="stroke:none;stroke-width:1.29999995;stroke-miterlimit:4;stroke-dasharray:none;stroke-opacity:1">
          <circle
             style="opacity:1;fill:#5ea5fb;fill-opacity:0;stroke:none;stroke-width:1.29999995;stroke-miterlimit:4;stroke-dasharray:none;stroke-dashoffset:0;stroke-opacity:1"
             id="circle4174"
             cx="400.57144"
             cy="531.79797"
             r="13.999958" />
          <circle
             style="opacity:1;fill:url(#linearGradient3426);fill-opacity:1;stroke:none;stroke-width:1.29999995;stroke-miterlimit:4;stroke-dasharray:none;stroke-dashoffset:0;stroke-opacity:1"
             id="ellipse4233"
             cx="400.57138"
             cy="531.79791"
             r="0" />
        </g>
      </g>
      <g
         inkscape:label="Capa 1"
         id="layer1-7"
         transform="matrix(0.99885074,0,0,0.99885074,-47.099862,4.3548306)">
        <g
           id="g4471"
           transform="matrix(1.0931221,0,0,1.0931221,33.310366,-50.486049)">
          <g
             inkscape:label="Capa 1"
             id="layer1-39-1"
             transform="matrix(1.5444819,0,0,1.5444819,-275.38426,-295.80854)" />
          <g
             transform="matrix(0.91481089,0,0,0.91481089,-76.187461,46.864295)"
             id="layer1-32"
             inkscape:label="Capa 1" />
          <g
             transform="matrix(0.7996534,0,0,0.7996534,370.63944,-303.64638)"
             id="layer1-5"
             inkscape:label="Capa 1"
             style="fill:#e7f0fa;fill-opacity:1">
            <g
               inkscape:label="Capa 1"
               id="layer1-71"
               transform="matrix(1.1440093,0,0,1.1440093,-483.05399,432.48219)">
              <g
                 transform="translate(-16.203215,4.2947848)"
                 id="layer1-7-5"
                 inkscape:label="Capa 1"
                 style="fill:#424448;fill-opacity:1">
                <g
                   style="fill:#424448;fill-opacity:1"
                   transform="matrix(1.0931221,0,0,1.0931221,33.310366,-50.486049)"
                   id="g4471-15">
                  <g
                     style="fill:#424448;fill-opacity:1"
                     transform="matrix(1.5444819,0,0,1.5444819,-275.38426,-295.80854)"
                     id="layer1-39-1-3"
                     inkscape:label="Capa 1" />
                  <g
                     style="fill:#424448;fill-opacity:1"
                     inkscape:label="Capa 1"
                     id="layer1-32-6"
                     transform="matrix(0.91481089,0,0,0.91481089,-76.187461,46.864295)" />
                  <g
                     style="fill:#424448;fill-opacity:1"
                     transform="matrix(1.0100534,0,0,1.0100534,-66.296947,0.99526314)"
                     id="layer1-1"
                     inkscape:label="Capa 1">
                    <g
                       style="fill:#424448;fill-opacity:1"
                       transform="matrix(1.0931221,0,0,1.0931221,33.310366,-50.486049)"
                       id="g4471-0">
                      <g
                         style="fill:#424448;fill-opacity:1"
                         transform="matrix(1.5444819,0,0,1.5444819,-275.38426,-295.80854)"
                         id="layer1-39-6"
                         inkscape:label="Capa 1" />
                      <g
                         style="fill:#424448;fill-opacity:1"
                         inkscape:label="Capa 1"
                         id="layer1-32-1"
                         transform="matrix(0.91481089,0,0,0.91481089,-76.187461,46.864295)" />
                      <g
                         style="fill:#424448;fill-opacity:1"
                         inkscape:label="Capa 1"
                         id="layer1-8-3"
                         transform="matrix(0.75313035,0,0,0.75313035,-52.14098,77.193156)">
                        <g
                           style="fill:#424448;fill-opacity:1"
                           inkscape:label="Capa 1"
                           id="layer1-37"
                           transform="matrix(1.0974639,0,0,1.0974639,553.08062,-548.24616)">
                          <g
                             id="g3"
                             transform="matrix(0.03237498,0,0,0.03237498,1.7308426,1032.0601)"
                             style="fill:#424448;fill-opacity:1">
                            <path
                               inkscape:connector-curvature="0"
                               d="m 506.367,293.097 -43.836,0 c -11.092,0 -20.043,8.874 -20.426,19.813 -9.104,84.609 -80.707,150.476 -167.84,150.476 -93.253,0 -168.759,-75.429 -168.759,-168.529 0,-92.258 76.041,-167.229 168.071,-168.529 l 0,27.387 c 0,12.47 8.874,18.054 19.737,12.47 L 433.998,94.199 c 10.863,-5.585 10.863,-14.612 0,-20.196 L 293.314,2.168 c -10.863,-5.584 -19.737,0 -19.737,12.393 l 0,27.616 C 134.882,43.478 21.127,156.239 21.127,295.01 c 0,139.612 113.296,252.832 253.139,252.832 133.723,0 243.27,-103.504 252.449,-234.778 0.076,-11.016 -9.18,-19.967 -20.348,-19.967 z M 712.80788,275.25061 A 433.48605,433.48605 0 0 1 279.32177,708.73672 433.48605,433.48605 0 0 1 -154.16435,275.25061 433.48605,433.48605 0 0 1 279.32177,-158.23551 433.48605,433.48605 0 0 1 712.80788,275.25061 Z"
                               style="fill:#ffffff;fill-opacity:1;stroke:none"
                               id="path5" />
                          </g>
                        </g>
                      </g>
                    </g>
                  </g>
                </g>
              </g>
            </g>
          </g>
        </g>
      </g>
    </g>
    <g
       id="layer1-18"
       inkscape:label="Capa 1"
       transform="translate(-67.487072,-4.6378256)">
      <g
         transform="matrix(1.7142857,0,0,1.7142857,-278.12245,-387.8557)"
         inkscape:label="Capa 1"
         id="layer1-1-9">
        <g
           transform="matrix(1.7090767,0,0,1.7090767,-365.37252,-370.54956)"
           id="layer1-7-1"
           inkscape:label="Capa 1">
          <g
             transform="matrix(1.0931221,0,0,1.0931221,33.310366,-50.486049)"
             id="g4471-3">
            <g
               transform="matrix(1.5444819,0,0,1.5444819,-275.38426,-295.80854)"
               id="layer1-39-1-5"
               inkscape:label="Capa 1" />
            <g
               inkscape:label="Capa 1"
               id="layer1-32-14"
               transform="matrix(0.91481089,0,0,0.91481089,-76.187461,46.864295)" />
            <g
               style="fill:#e7f0fa;fill-opacity:1"
               inkscape:label="Capa 1"
               id="layer1-5-1"
               transform="matrix(0.80800628,0,0,0.80800628,370.33012,-312.56174)">
              <g
                 transform="matrix(1.2616535,0,0,1.2616535,-536.29645,371.40776)"
                 id="layer1-6"
                 inkscape:label="Capa 1"
                 style="stroke:#424448;stroke-opacity:1">
                <g
                   inkscape:label="Capa 1"
                   id="layer1-7-8"
                   transform="translate(-14.140115,3.1569489)"
                   style="stroke:#424448;stroke-width:1.77703738;stroke-miterlimit:4;stroke-dasharray:none;stroke-opacity:1">
                  <g
                     id="g4471-7"
                     transform="matrix(1.0931221,0,0,1.0931221,33.310366,-50.486049)"
                     style="stroke:#424448;stroke-width:1.62565315;stroke-miterlimit:4;stroke-dasharray:none;stroke-opacity:1">
                    <g
                       inkscape:label="Capa 1"
                       id="layer1-39-1-2"
                       transform="matrix(1.5444819,0,0,1.5444819,-275.38426,-295.80854)"
                       style="stroke:#424448;stroke-width:1.05255568;stroke-miterlimit:4;stroke-dasharray:none;stroke-opacity:1" />
                    <g
                       transform="matrix(0.91481089,0,0,0.91481089,-76.187461,46.864295)"
                       id="layer1-32-5"
                       inkscape:label="Capa 1"
                       style="stroke:#424448;stroke-width:1.77703738;stroke-miterlimit:4;stroke-dasharray:none;stroke-opacity:1" />
                    <g
                       inkscape:label="Capa 1"
                       id="layer1-13"
                       transform="matrix(0.91481089,0,0,0.91481089,-30.548999,50.916548)"
                       style="stroke:#424448;stroke-width:1.77703738;stroke-miterlimit:4;stroke-dasharray:none;stroke-opacity:1">
                      <g
                         id="g4471-1"
                         transform="matrix(1.0931221,0,0,1.0931221,33.310366,-50.486049)"
                         style="stroke:#424448;stroke-width:1.62565315;stroke-miterlimit:4;stroke-dasharray:none;stroke-opacity:1">
                        <g
                           inkscape:label="Capa 1"
                           id="layer1-39-17"
                           transform="matrix(1.5444819,0,0,1.5444819,-275.38426,-295.80854)"
                           style="stroke:#424448;stroke-width:1.05255568;stroke-miterlimit:4;stroke-dasharray:none;stroke-opacity:1" />
                        <g
                           transform="matrix(0.91481089,0,0,0.91481089,-76.187461,46.864295)"
                           id="layer1-32-7"
                           inkscape:label="Capa 1"
                           style="stroke:#424448;stroke-width:1.77703738;stroke-miterlimit:4;stroke-dasharray:none;stroke-opacity:1" />
                        <g
                           transform="matrix(0.84059015,0,0,0.84059015,-95.120107,25.210716)"
                           id="layer1-8"
                           inkscape:label="Capa 1"
                           style="stroke:#424448;stroke-width:1.93394268;stroke-miterlimit:4;stroke-dasharray:none;stroke-opacity:1">
                          <g
                             style="fill:#424448;fill-opacity:1;stroke:#424448;stroke-width:4.51099205;stroke-miterlimit:4;stroke-dasharray:none;stroke-opacity:1"
                             transform="matrix(0.06249531,0,0,0.06249531,561.80348,590.09373)"
                             sketch:type="MSLayerGroup"
                             id="chevron20" />
                        </g>
                      </g>
                    </g>
                  </g>
                </g>
              </g>
            </g>
          </g>
        </g>
      </g>
    </g>
  </g>
</svg>
